symbols-de/shields/motorway_9x1_z18.svg

<?xml version="1.0" encoding="UTF-8" standalone="no"?>
<svg
   xmlns:dc="http://purl.org/dc/elements/1.1/"
   xmlns:cc="http://creativecommons.org/ns#"
   xmlns:rdf="http://www.w3.org/1999/02/22-rdf-syntax-ns#"
   xmlns:svg="http://www.w3.org/2000/svg"
   xmlns="http://www.w3.org/2000/svg"
   xmlns:sodipodi="http://sodipodi.sourceforge.net/DTD/sodipodi-0.dtd"
   xmlns:inkscape="http://www.inkscape.org/namespaces/inkscape"
   width="100%"
   height="100%"
   viewBox="0 0 74.0 17.0"
   id="svg2"
   version="1.1"
   inkscape:version="0.91 r13725"
   sodipodi:docname="autobahn_9x1_z18.svg">
  <metadata
     id="metadata9">
    <rdf:RDF>
      <cc:Work
         rdf:about="">
        <dc:format>image/svg+xml</dc:format>
        <dc:type
           rdf:resource="http://purl.org/dc/dcmitype/StillImage" />
        <dc:title></dc:title>
      </cc:Work>
    </rdf:RDF>
  </metadata>
  <defs
     id="defs7" />
  <sodipodi:namedview
     pagecolor="#ffffff"
     bordercolor="#666666"
     borderopacity="1"
     objecttolerance="10"
     gridtolerance="10"
     guidetolerance="10"
     inkscape:pageopacity="0"
     inkscape:pageshadow="2"
     inkscape:window-width="960"
     inkscape:window-height="788"
     id="namedview5"
     showgrid="false"
     inkscape:zoom="4.7702703"
     inkscape:cx="37"
     inkscape:cy="8.5"
     inkscape:window-x="214"
     inkscape:window-y="172"
     inkscape:window-maximized="0"
     inkscape:current-layer="svg2" />
  <path
     inkscape:connector-curvature="0"
     style="fill:#365eaf;fill-opacity:1;stroke:#0528a2;stroke-width:1;stroke-miterlimit:4;stroke-dasharray:none;stroke-opacity:1"
     id="path6"
     d="m 0.49999998,8.500035 0,-5.527285 q 0,-0.290912 1.17741802,-0.436363 L 36.215043,0.514566 q 0,-0.01457 0.784952,-0.01457 0.784943,0 0.784943,0.01457 l 34.537633,2.021821 q 1.177426,0.145451 1.177426,0.436363 l 0,11.054571 q 0,0.290913 -1.177426,0.436364 L 37.784938,16.4855 q 0,0.0145 -0.784943,0.0145 -0.784952,0 -0.784952,-0.0145 L 1.677418,14.463685 Q 0.49999998,14.318234 0.49999998,14.027321 Z" />
</svg>

<?xml version="1.0" encoding="UTF-8"?>
<svg xmlns="http://www.w3.org/2000/svg" xmlns:xlink="http://www.w3.org/1999/xlink" width="72pt" height="21pt" viewBox="0 0 72 21" version="1.1">
<g id="surface1">
<path style="fill-rule:nonzero;fill:rgb(21.176471%,36.862745%,68.627451%);fill-opacity:1;stroke-width:1;stroke-linecap:butt;stroke-linejoin:miter;stroke:rgb(1.960784%,15.686275%,63.529412%);stroke-opacity:1;stroke-miterlimit:4;" d="M 0.501845 8.5 L 0.501845 2.97247 C 0.501845 2.779576 0.891276 2.634115 1.678168 2.536086 L 36.213108 0.515439 C 36.213108 0.505952 36.478082 0.499628 37 0.499628 C 37.521918 0.499628 37.786892 0.505952 37.786892 0.515439 L 72.321832 2.536086 C 73.108724 2.634115 73.498155 2.779576 73.498155 2.97247 L 73.498155 14.02753 C 73.498155 14.220424 73.108724 14.365885 72.321832 14.463914 L 37.786892 16.484561 C 37.786892 16.494048 37.521918 16.500372 37 16.500372 C 36.478082 16.500372 36.213108 16.494048 36.213108 16.484561 L 1.678168 14.463914 C 0.891276 14.365885 0.501845 14.220424 0.501845 14.02753 Z M 0.501845 8.5 " transform="matrix(0.972973,0,0,1.235294,0,0)"/>
</g>
</svg>
